X:1
T:Gruebe-Juiz  Bb  ABAC
T:Hansruedi Niederberger  (* 30.9.1948)
T:Dirigenten-Notiz  Edi Gasser
C:Unterwalden (CH)
%%partsbox
P:ABAC
M:3/4
R:Naturjodel
L:1/4
K:Bb
[P:A] B,/C/ | D>Ff |  c2f/e/ | dFc | B>DF | Dfd | c>EF | E/e/dc/F/ | B2B,/C/ | 
D>Ff | c2f/e/ | dFc | B>DF | Dfd | c>EF | E/e/dc/F/ | B2 || 
L:1/8
M:3/4
[P:B]  df | c2cF Ac | f4Ff | d2dF dc | B3dg2 | f3F Ac | f4g2 | f3d Bd | 
F4 df | c2cF Ac | f4Ff | d2dF dc | B3dg2 | f3e cA | F4d2 | (B6 | B4)z2 ||  
M:3/4
[P:C]  B,D | F2DF dc | B3cd2 | F2DF dc | B3AG2 | F2EF ed | 
ced2c2 | B3F Bc | d4B,D | F2DF dc | B3D EF | 
G2EG ed | c3B AG | F2DF Bd | f3dc2 | (B6 | B4)z2 |] 
W:
%W:Reihenfolge: A-B-A-C
W:notiert Edi Gasser. Angaben: Hr Niederberger
W:
W:UJV-Naturjodelsammlung: Code-Nr: 18-01
W:http://www.naturjodler.ch/code 18.htm  (with AUDIO)
%May 15, 2018

